packages/icons/src/components/Icon/assets/small-solid/support.svg

<svg width="16" height="16" viewBox="0 0 16 16" fill="none" xmlns="http://www.w3.org/2000/svg">
<path fill-rule="evenodd" clip-rule="evenodd" d="M12.9497 3.05025C10.2161 0.316582 5.78392 0.316582 3.05025 3.05025C0.316582 5.78392 0.316583 10.2161 3.05025 12.9497C5.78392 15.6834 10.2161 15.6834 12.9497 12.9497C15.6834 10.2161 15.6834 5.78392 12.9497 3.05025ZM5.68843 3.00769C7.15077 2.33077 8.84922 2.33077 10.3116 3.00769L8.69825 5.08196C8.23966 4.97269 7.76034 4.97269 7.30175 5.08196L5.68843 3.00769ZM3.00769 5.68845C2.33077 7.15079 2.33077 8.84923 3.0077 10.3116L5.08196 8.69826C4.97268 8.23967 4.97268 7.76035 5.08195 7.30177L3.00769 5.68845ZM5.68845 12.9923L7.30176 10.9181C7.76034 11.0273 8.23966 11.0273 8.69824 10.9181L10.3116 12.9923C8.84922 13.6692 7.15078 13.6692 5.68845 12.9923ZM12.9923 10.3116C13.6692 8.84923 13.6692 7.15078 12.9923 5.68845L10.918 7.30176C11.0273 7.76035 11.0273 8.23967 10.918 8.69825L12.9923 10.3116ZM6.93934 6.93935C7.52513 6.35356 8.47487 6.35356 9.06066 6.93935C9.64645 7.52513 9.64645 8.47488 9.06066 9.06067C8.47487 9.64645 7.52513 9.64645 6.93934 9.06067C6.35355 8.47488 6.35355 7.52513 6.93934 6.93935Z" fill="black"/>
</svg>

<svg xmlns="http://www.w3.org/2000/svg" width="16" height="16" fill="none" viewBox="0 0 16 16">
    <path fill="#000" fill-rule="evenodd" d="M12.95 3.05a7 7 0 1 0-9.9 9.9 7 7 0 0 0 9.9-9.9m-7.262-.042a5.52 5.52 0 0 1 4.624 0L8.698 5.082a3 3 0 0 0-1.396 0zm-2.68 2.68a5.52 5.52 0 0 0 0 4.624l2.074-1.614a3 3 0 0 1 0-1.396zm2.68 7.304 1.614-2.074c.458.11.938.11 1.396 0l1.614 2.074a5.52 5.52 0 0 1-4.624 0m7.304-2.68a5.52 5.52 0 0 0 0-4.624l-2.074 1.614c.11.458.11.938 0 1.396zM6.94 6.939a1.5 1.5 0 1 1 2.122 2.122A1.5 1.5 0 0 1 6.94 6.939" clip-rule="evenodd"/>
</svg>
